src-assets/img/guillemet-close.svg

<svg width="26" height="22" viewBox="0 0 26 22" fill="none" xmlns="http://www.w3.org/2000/svg">
<path d="M19.4584 0.120002C21.3251 0.120002 22.8184 0.786668 23.9384 2.12C25.0051 3.50667 25.5384 5.29334 25.5384 7.48C25.5384 10.4667 24.7384 13.16 23.1384 15.56C21.4851 18.0133 18.9784 20.0667 15.6184 21.72L14.7384 20.44C16.3384 19.48 17.8051 18.12 19.1384 16.36C20.4184 14.6533 21.0584 12.92 21.0584 11.16C21.0584 10.68 20.9251 10.28 20.6584 9.96C20.3918 9.69333 19.9918 9.56 19.4584 9.56C18.1251 9.56 17.0051 9.08 16.0984 8.12C15.1384 7.21334 14.6584 6.09333 14.6584 4.76C14.6584 3.42667 15.1384 2.30667 16.0984 1.4C17.0051 0.546668 18.1251 0.120002 19.4584 0.120002ZM5.61844 0.120001C7.48511 0.120001 8.97844 0.786667 10.0984 2.12C11.1651 3.50667 11.6984 5.29333 11.6984 7.48C11.6984 10.4667 10.8984 13.16 9.29844 15.56C7.6451 18.0133 5.13844 20.0667 1.77844 21.72L0.898436 20.44C2.49844 19.48 3.9651 18.12 5.29844 16.36C6.57844 14.6533 7.21844 12.92 7.21844 11.16C7.21844 10.68 7.0851 10.28 6.81844 9.96C6.55177 9.69333 6.15177 9.56 5.61844 9.56C4.2851 9.56 3.1651 9.08 2.25844 8.12C1.29844 7.21333 0.818438 6.09333 0.818438 4.76C0.818438 3.42667 1.29844 2.30667 2.25844 1.4C3.16511 0.546666 4.28511 0.120001 5.61844 0.120001Z" fill="#B81734"/>
</svg>

<svg width="26" height="22" viewBox="0 0 26 22" fill="none" xmlns="http://www.w3.org/2000/svg"><path d="M19.458.12c1.867 0 3.36.667 4.48 2 1.067 1.387 1.6 3.173 1.6 5.36 0 2.987-.8 5.68-2.4 8.08-1.653 2.453-4.16 4.507-7.52 6.16l-.88-1.28c1.6-.96 3.067-2.32 4.4-4.08 1.28-1.707 1.92-3.44 1.92-5.2 0-.48-.133-.88-.4-1.2-.266-.267-.666-.4-1.2-.4-1.333 0-2.453-.48-3.36-1.44-.96-.907-1.44-2.027-1.44-3.36 0-1.333.48-2.453 1.44-3.36.907-.853 2.027-1.28 3.36-1.28zm-13.84 0c1.867 0 3.36.667 4.48 2 1.067 1.387 1.6 3.173 1.6 5.36 0 2.987-.8 5.68-2.4 8.08-1.653 2.453-4.16 4.507-7.52 6.16l-.88-1.28c1.6-.96 3.067-2.32 4.4-4.08 1.28-1.707 1.92-3.44 1.92-5.2 0-.48-.133-.88-.4-1.2-.266-.267-.666-.4-1.2-.4-1.333 0-2.453-.48-3.36-1.44-.96-.907-1.44-2.027-1.44-3.36 0-1.333.48-2.453 1.44-3.36C3.165.547 4.285.12 5.618.12z" fill="#B81734"/></svg>
